build/img/content/advantages/coin.svg

<svg width="120" height="120" viewBox="0 0 120 120" fill="none" xmlns="http://www.w3.org/2000/svg">
<path d="M18.75 61.875H101.25V114.375H18.75V61.875Z" fill="#AABECE"/>
<path d="M26.25 61.875H93.75V69.375H26.25V61.875Z" fill="#394D5C"/>
<path d="M60 61.875C70.3553 61.875 78.75 53.4803 78.75 43.125C78.75 32.7697 70.3553 24.375 60 24.375C49.6447 24.375 41.25 32.7697 41.25 43.125C41.25 53.4803 49.6447 61.875 60 61.875Z" fill="#F9BB4B"/>
<path d="M58.125 3.75H61.875V18.75H58.125V3.75Z" fill="#2D75BB"/>
<path d="M67.5 7.5H71.25V20.625H67.5V7.5Z" fill="#2D75BB"/>
<path d="M48.75 7.5H52.5V20.625H48.75V7.5Z" fill="#2D75BB"/>
<path d="M24.375 75H31.875V78.75H24.375V75Z" fill="#F4F4E6"/>
<path d="M35.625 75H84.375V78.75H35.625V75Z" fill="#F4F4E6"/>
<path d="M88.125 75H95.625V78.75H88.125V75Z" fill="#F4F4E6"/>
<path d="M35.625 108.75H24.375V95.625H28.125V105H35.625V108.75Z" fill="#7D8D9C"/>
<path d="M39.375 105H43.125V108.75H39.375V105Z" fill="#7D8D9C"/>
<path d="M95.625 108.75H88.125V105H91.875V93.75H95.625V108.75Z" fill="#7D8D9C"/>
<path d="M65.625 52.5H52.5V48.75H63.75V45H54.375C53.8777 45 53.4008 44.8025 53.0492 44.4508C52.6975 44.0992 52.5 43.6223 52.5 43.125V35.625C52.5 35.1277 52.6975 34.6508 53.0492 34.2992C53.4008 33.9475 53.8777 33.75 54.375 33.75H67.5V37.5H56.25V41.25H65.625C66.1223 41.25 66.5992 41.4475 66.9508 41.7992C67.3025 42.1508 67.5 42.6277 67.5 43.125V50.625C67.5 51.1223 67.3025 51.5992 66.9508 51.9508C66.5992 52.3025 66.1223 52.5 65.625 52.5Z" fill="#FCF05A"/>
<path d="M58.125 30H61.875V35.625H58.125V30Z" fill="#FCF05A"/>
<path d="M58.125 50.625H61.875V56.25H58.125V50.625Z" fill="#FCF05A"/>
<path d="M71.8219 60C75.4179 57.4861 78.1186 53.8908 79.5313 49.7368C80.9441 45.5828 80.9953 41.0865 79.6775 36.9014C78.3596 32.7163 75.7415 29.0605 72.2036 26.4654C68.6657 23.8703 64.3924 22.471 60.0047 22.471C55.617 22.471 51.3437 23.8703 47.8058 26.4654C44.2679 29.0605 41.6497 32.7163 40.3319 36.9014C39.0141 41.0865 39.0653 45.5828 40.478 49.7368C41.8908 53.8908 44.5914 57.4861 48.1875 60H16.875V116.25H103.125V60H71.8219ZM43.125 43.125C43.125 39.7874 44.1147 36.5248 45.9689 33.7497C47.8232 30.9747 50.4587 28.8118 53.5422 27.5345C56.6257 26.2573 60.0187 25.9231 63.2922 26.5742C66.5656 27.2254 69.5724 28.8326 71.9324 31.1926C74.2924 33.5526 75.8996 36.5594 76.5508 39.8328C77.2019 43.1063 76.8677 46.4993 75.5905 49.5828C74.3132 52.6663 72.1503 55.3018 69.3753 57.156C66.6002 59.0103 63.3376 60 60 60C55.526 59.995 51.2367 58.2155 48.0731 55.0519C44.9095 51.8883 43.13 47.599 43.125 43.125V43.125ZM91.875 63.75V67.5H28.125V63.75H91.875ZM99.375 63.75V112.5H20.625V63.75H24.375V71.25H95.625V63.75H99.375Z" fill="black"/>
<path d="M58.125 3.75H61.875V18.75H58.125V3.75Z" fill="black"/>
<path d="M67.5 7.5H71.25V20.625H67.5V7.5Z" fill="black"/>
<path d="M48.75 7.5H52.5V20.625H48.75V7.5Z" fill="black"/>
<path d="M24.375 75H31.875V78.75H24.375V75Z" fill="black"/>
<path d="M35.625 75H84.375V78.75H35.625V75Z" fill="black"/>
<path d="M88.125 75H95.625V78.75H88.125V75Z" fill="black"/>
<path d="M28.125 95.625H24.375V108.75H35.625V105H28.125V95.625Z" fill="black"/>
<path d="M39.375 105H43.125V108.75H39.375V105Z" fill="black"/>
<path d="M91.875 105H88.125V108.75H95.625V93.75H91.875V105Z" fill="black"/>
<path d="M61.875 30H58.125V33.75H54.375C53.8777 33.75 53.4008 33.9475 53.0492 34.2992C52.6975 34.6508 52.5 35.1277 52.5 35.625V43.125C52.5 43.6223 52.6975 44.0992 53.0492 44.4508C53.4008 44.8025 53.8777 45 54.375 45H63.75V48.75H52.5V52.5H58.125V56.25H61.875V52.5H65.625C66.1223 52.5 66.5992 52.3025 66.9508 51.9508C67.3025 51.5992 67.5 51.1223 67.5 50.625V43.125C67.5 42.6277 67.3025 42.1508 66.9508 41.7992C66.5992 41.4475 66.1223 41.25 65.625 41.25H56.25V37.5H67.5V33.75H61.875V30Z" fill="black"/>
</svg>

<svg width="120" height="120" fill="none" xmlns="http://www.w3.org/2000/svg"><path d="M18.75 61.875h82.5v52.5h-82.5v-52.5z" fill="#AABECE"/><path d="M26.25 61.875h67.5v7.5h-67.5v-7.5z" fill="#394D5C"/><path d="M60 61.875c10.355 0 18.75-8.395 18.75-18.75S70.355 24.375 60 24.375s-18.75 8.395-18.75 18.75 8.395 18.75 18.75 18.75z" fill="#F9BB4B"/><path d="M58.125 3.75h3.75v15h-3.75v-15zM67.5 7.5h3.75v13.125H67.5V7.5zm-18.75 0h3.75v13.125h-3.75V7.5z" fill="#2D75BB"/><path d="M24.375 75h7.5v3.75h-7.5V75zm11.25 0h48.75v3.75h-48.75V75zm52.5 0h7.5v3.75h-7.5V75z" fill="#F4F4E6"/><path d="M35.625 108.75h-11.25V95.625h3.75V105h7.5v3.75zm3.75-3.75h3.75v3.75h-3.75V105zm56.25 3.75h-7.5V105h3.75V93.75h3.75v15z" fill="#7D8D9C"/><path d="M65.625 52.5H52.5v-3.75h11.25V45h-9.375a1.875 1.875 0 01-1.875-1.875v-7.5a1.875 1.875 0 011.875-1.875H67.5v3.75H56.25v3.75h9.375a1.875 1.875 0 011.875 1.875v7.5a1.875 1.875 0 01-1.875 1.875z" fill="#FCF05A"/><path d="M58.125 30h3.75v5.625h-3.75V30zm0 20.625h3.75v5.625h-3.75v-5.625z" fill="#FCF05A"/><path d="M71.822 60a20.625 20.625 0 10-23.635 0H16.875v56.25h86.25V60H71.822zM43.125 43.125A16.875 16.875 0 1160 60a16.894 16.894 0 01-16.875-16.875zm48.75 20.625v3.75h-63.75v-3.75h63.75zm7.5 0v48.75h-78.75V63.75h3.75v7.5h71.25v-7.5h3.75zm-41.25-60h3.75v15h-3.75v-15zM67.5 7.5h3.75v13.125H67.5V7.5zm-18.75 0h3.75v13.125h-3.75V7.5z" fill="#000"/><path d="M24.375 75h7.5v3.75h-7.5V75zm11.25 0h48.75v3.75h-48.75V75zm52.5 0h7.5v3.75h-7.5V75zm-60 20.625h-3.75v13.125h11.25V105h-7.5v-9.375zM39.375 105h3.75v3.75h-3.75V105zm52.5 0h-3.75v3.75h7.5v-15h-3.75V105zm-30-75h-3.75v3.75h-3.75a1.875 1.875 0 00-1.875 1.875v7.5A1.875 1.875 0 0054.375 45h9.375v3.75H52.5v3.75h5.625v3.75h3.75V52.5h3.75a1.875 1.875 0 001.875-1.875v-7.5a1.875 1.875 0 00-1.875-1.875H56.25V37.5H67.5v-3.75h-5.625V30z" fill="#000"/></svg>
